<?xml version="1.0" encoding="UTF-8"?>
<map version="1.10" tiledversion="1.12.2" orientation="orthogonal" renderorder="right-down" width="30" height="20" tilewidth="16" tileheight="16" infinite="1" nextlayerid="3" nextobjectid="1">
 <editorsettings>
  <export target="chapter1.lua" format="lua"/>
 </editorsettings>
 <tileset firstgid="1" name="Ground" tilewidth="16" tileheight="16" tilecount="32" columns="8">
  <image source="../sprites/Chapter1/Tilemap.png" width="128" height="64"/>
 </tileset>
 <layer id="1" name="Floor" width="30" height="20">
  <data encoding="csv">
   <chunk x="-16" y="-16" width="16" height="16">
0,0,0,0,0,17,17,17,17,17,17,17,17,17,17,17,
0,0,0,0,0,17,17,17,17,17,17,17,17,17,17,17,
0,0,0,0,0,17,17,17,17,17,17,17,17,17,17,17,
0,0,0,0,0,17,17,17,17,17,17,17,17,17,17,17,
0,0,0,0,0,17,17,17,17,17,17,17,17,17,17,17,
0,0,0,0,0,17,17,17,17,17,17,17,17,17,17,17,
0,0,0,0,0,17,17,17,17,17,17,17,17,17,17,17,
0,0,0,0,0,17,17,17,17,17,17,17,17,17,17,17,
0,0,0,0,0,17,17,17,17,17,17,17,17,17,17,17,
0,0,0,0,0,12,12,12,12,12,5,2,2,2,2,2,
0,0,0,0,0,12,12,12,12,12,5,2,2,2,2,2,
0,0,0,0,0,12,12,12,12,12,5,2,2,2,2,2,
0,0,0,0,0,12,12,12,12,12,5,2,2,2,2,2,
0,0,0,0,0,12,12,12,12,12,5,2,2,2,2,2,
0,0,0,0,0,12,12,12,12,12,5,2,2,2,2,2,
0,0,0,0,0,12,12,12,12,12,5,2,2,2,2,2
</chunk>
   <chunk x="0" y="-16" width="16" height="16">
17,17,17,17,17,17,17,17,17,17,17,17,17,17,17,17,
17,17,17,17,17,17,17,18,19,19,17,19,19,20,17,17,
17,17,17,17,17,17,17,30,25,25,21,25,25,22,17,17,
17,17,17,17,17,17,17,30,25,25,21,25,25,22,17,17,
17,17,17,17,17,17,17,30,25,23,21,31,25,22,17,17,
17,17,17,17,17,17,17,30,25,24,15,16,25,22,17,17,
17,17,17,17,17,17,17,30,25,25,21,25,25,22,17,17,
17,17,17,17,17,17,17,30,25,25,21,25,25,22,17,17,
17,17,17,17,17,17,17,26,27,27,29,27,27,22,17,17,
2,2,2,2,2,2,2,1,1,1,1,1,1,1,2,2,
2,2,2,2,2,2,2,1,1,1,1,1,1,1,2,2,
2,2,2,2,2,2,2,1,1,1,1,1,1,1,2,2,
2,2,2,2,2,2,2,2,1,1,1,1,1,2,2,2,
2,2,2,2,2,2,2,2,2,2,1,2,2,2,2,2,
2,2,2,2,2,2,2,2,2,2,1,2,2,2,2,2,
2,2,2,2,2,2,2,2,2,2,1,2,2,2,2,2
</chunk>
   <chunk x="16" y="-16" width="16" height="16">
17,17,17,17,17,17,17,17,17,17,17,17,17,17,17,17,
17,17,17,17,17,17,17,17,17,17,17,17,17,17,17,17,
17,17,17,17,17,17,17,17,17,17,17,17,17,17,17,17,
17,17,17,17,17,17,17,17,17,17,17,17,17,17,17,17,
17,17,17,17,17,17,17,17,17,17,17,17,17,17,17,17,
17,17,17,17,17,17,17,17,17,17,17,17,17,17,17,17,
17,17,17,17,17,17,17,17,17,17,17,17,17,17,17,17,
17,17,17,17,17,17,17,17,17,17,17,17,17,17,17,17,
17,17,17,17,17,17,17,17,17,17,17,17,17,17,17,17,
2,2,2,2,2,2,2,2,2,2,2,2,2,11,12,12,
2,2,2,2,2,2,2,2,2,2,2,2,2,11,12,12,
2,2,2,2,2,2,2,2,2,2,2,2,2,11,12,12,
2,2,2,2,2,2,2,2,2,2,2,2,2,11,12,12,
2,2,2,2,2,2,2,2,2,2,2,2,2,11,12,12,
2,2,2,2,2,2,2,2,2,2,2,2,2,11,12,12,
2,2,2,2,2,2,2,2,2,2,2,2,2,11,12,12
</chunk>
   <chunk x="32" y="-16" width="16" height="16">
17,17,17,0,0,0,0,0,0,0,0,0,0,0,0,0,
17,17,17,0,0,0,0,0,0,0,0,0,0,0,0,0,
17,17,17,0,0,0,0,0,0,0,0,0,0,0,0,0,
17,17,17,0,0,0,0,0,0,0,0,0,0,0,0,0,
17,17,17,0,0,0,0,0,0,0,0,0,0,0,0,0,
17,17,17,0,0,0,0,0,0,0,0,0,0,0,0,0,
17,17,17,0,0,0,0,0,0,0,0,0,0,0,0,0,
17,17,17,0,0,0,0,0,0,0,0,0,0,0,0,0,
17,17,17,0,0,0,0,0,0,0,0,0,0,0,0,0,
12,12,12,0,0,0,0,0,0,0,0,0,0,0,0,0,
12,12,12,0,0,0,0,0,0,0,0,0,0,0,0,0,
12,12,12,0,0,0,0,0,0,0,0,0,0,0,0,0,
12,12,12,0,0,0,0,0,0,0,0,0,0,0,0,0,
12,12,12,0,0,0,0,0,0,0,0,0,0,0,0,0,
12,12,12,0,0,0,0,0,0,0,0,0,0,0,0,0,
12,12,12,0,0,0,0,0,0,0,0,0,0,0,0,0
</chunk>
   <chunk x="-16" y="0" width="16" height="16">
0,0,0,0,0,12,12,12,12,12,5,2,2,2,2,2,
0,0,0,0,0,12,12,12,12,12,5,2,2,2,2,2,
0,0,0,0,0,12,12,12,12,12,5,2,1,1,1,1,
0,0,0,0,0,12,12,12,12,12,5,2,1,2,2,2,
0,0,0,0,0,12,12,12,12,12,5,2,1,1,1,1,
0,0,0,0,0,12,12,12,12,12,5,2,2,2,2,2,
0,0,0,0,0,12,12,12,12,12,5,2,1,1,1,1,
0,0,0,0,0,12,12,12,12,12,5,2,1,2,2,2,
0,0,0,0,0,12,12,12,12,12,5,2,1,1,1,1,
0,0,0,0,0,12,12,12,12,12,5,2,2,2,2,2,
0,0,0,0,0,12,12,12,12,12,6,3,3,3,3,3,
0,0,0,0,0,12,12,12,12,12,12,12,12,12,12,12,
0,0,0,0,0,12,12,12,12,12,12,12,12,12,12,12,
0,0,0,0,0,12,12,12,12,12,12,12,12,12,12,12,
0,0,0,0,0,0,0,0,0,0,0,0,0,0,0,0,
0,0,0,0,0,0,0,0,0,0,0,0,0,0,0,0
</chunk>
   <chunk x="0" y="0" width="16" height="16">
2,2,2,2,2,2,2,2,2,2,1,1,1,1,1,1,
2,2,2,2,2,2,2,2,2,2,2,2,2,2,2,2,
1,1,1,1,1,1,1,1,1,1,1,1,1,1,1,1,
2,2,2,2,2,2,2,2,2,2,2,2,2,2,2,2,
1,1,1,1,1,1,1,1,1,1,1,1,1,1,1,1,
2,2,2,2,2,2,2,2,2,2,2,2,2,2,2,2,
1,1,1,1,1,1,1,1,1,1,1,1,1,1,1,1,
2,2,2,2,2,2,2,2,2,2,2,2,2,2,2,2,
1,1,1,1,1,1,1,1,1,1,1,1,1,1,1,1,
2,2,2,2,2,2,2,2,2,2,2,2,2,2,2,2,
3,3,3,3,3,3,3,3,3,3,3,3,3,3,3,3,
12,12,12,12,12,12,12,12,12,12,12,12,12,12,12,12,
12,12,12,12,12,12,12,12,12,12,12,12,12,12,12,12,
12,12,12,12,12,12,12,12,12,12,12,12,12,12,12,12,
0,0,0,0,0,0,0,0,0,0,0,0,0,0,0,0,
0,0,0,0,0,0,0,0,0,0,0,0,0,0,0,0
</chunk>
   <chunk x="16" y="0" width="16" height="16">
1,1,1,1,1,1,1,1,1,1,1,1,2,11,12,12,
2,2,2,2,2,2,2,2,2,2,2,1,2,11,12,12,
1,1,1,1,1,1,1,1,1,1,1,1,2,11,12,12,
2,2,2,2,2,2,2,2,2,2,2,2,2,11,12,12,
1,1,1,1,1,1,1,1,1,1,1,1,2,11,12,12,
2,2,2,2,2,2,2,2,2,2,2,1,2,11,12,12,
1,1,1,1,1,1,1,1,1,1,1,1,2,14,4,4,
2,2,2,2,2,2,2,2,2,2,2,2,2,2,2,2,
1,1,1,1,1,1,1,1,1,1,1,1,1,1,1,1,
2,2,2,2,2,2,2,2,2,2,2,2,2,2,2,2,
3,3,3,3,3,3,3,3,3,3,3,3,3,3,3,3,
12,12,12,12,12,12,12,12,12,12,12,12,12,12,12,12,
12,12,12,12,12,12,12,12,12,12,12,12,12,12,12,12,
12,12,12,12,12,12,12,12,12,12,12,12,12,12,12,12,
0,0,0,0,0,0,0,0,0,0,0,0,0,0,0,0,
0,0,0,0,0,0,0,0,0,0,0,0,0,0,0,0
</chunk>
   <chunk x="32" y="0" width="16" height="16">
12,12,12,0,0,0,0,0,0,0,0,0,0,0,0,0,
12,12,12,0,0,0,0,0,0,0,0,0,0,0,0,0,
12,12,12,0,0,0,0,0,0,0,0,0,0,0,0,0,
12,12,12,12,12,12,12,12,12,12,12,12,12,12,12,12,
12,12,12,12,12,12,12,12,12,12,12,12,12,12,12,12,
12,12,12,12,12,12,12,12,12,12,12,12,12,12,12,12,
4,4,4,4,4,4,4,4,4,4,4,4,4,4,4,4,
2,2,2,2,2,2,2,2,2,2,2,2,2,2,2,2,
1,1,1,1,1,1,1,1,1,1,1,1,1,1,1,1,
2,2,2,2,2,2,2,2,2,2,2,2,2,2,2,2,
3,3,3,3,3,3,3,3,3,3,3,3,3,3,3,3,
12,12,12,12,12,12,12,12,12,12,12,12,12,12,12,12,
12,12,12,12,12,12,12,12,12,12,12,12,12,12,12,12,
12,12,12,12,12,12,12,12,12,12,12,12,12,12,12,12,
0,0,0,0,0,0,0,0,0,0,0,0,0,0,0,0,
0,0,0,0,0,0,0,0,0,0,0,0,0,0,0,0
</chunk>
  </data>
 </layer>
 <layer id="2" name="Flowers" width="30" height="20">
  <data encoding="csv">
   <chunk x="-16" y="-16" width="16" height="16">
0,0,0,0,0,0,0,0,0,0,0,0,0,0,0,0,
0,0,0,0,0,0,0,0,0,0,0,0,0,0,0,0,
0,0,0,0,0,0,0,0,0,0,0,0,0,0,0,0,
0,0,0,0,0,0,0,0,0,0,0,0,0,0,0,0,
0,0,0,0,0,0,0,0,0,0,0,0,0,0,0,0,
0,0,0,0,0,0,0,0,0,0,0,0,0,0,0,0,
0,0,0,0,0,0,0,0,0,0,0,0,0,0,0,0,
0,0,0,0,0,0,0,0,0,0,0,0,0,0,0,0,
0,0,0,0,0,0,0,0,0,0,0,0,0,0,0,0,
0,0,0,0,0,0,0,0,0,0,0,7,9,7,10,9,
0,0,0,0,0,0,0,0,0,0,0,10,7,9,7,8,
0,0,0,0,0,0,0,0,0,0,0,9,9,9,9,8,
0,0,0,0,0,0,0,0,0,0,0,8,8,9,10,10,
0,0,0,0,0,0,0,0,0,0,0,9,10,8,7,8,
0,0,0,0,0,0,0,0,0,0,0,8,8,8,8,8,
0,0,0,0,0,0,0,0,0,0,0,8,8,9,7,8
</chunk>
   <chunk x="0" y="-16" width="16" height="16">
0,0,0,0,0,0,0,0,0,0,0,0,0,0,0,0,
0,0,0,0,0,0,0,0,0,0,13,0,0,0,0,0,
0,0,0,0,0,0,0,0,0,0,0,0,0,0,0,0,
0,0,0,0,0,0,0,0,0,0,0,0,0,0,0,0,
0,0,0,0,0,0,0,0,0,25,21,25,0,0,0,0,
0,0,0,0,0,0,0,0,25,25,21,25,0,0,0,0,
0,0,0,0,0,0,0,0,25,23,21,31,0,0,0,0,
0,0,0,0,0,0,0,0,0,24,15,16,0,0,0,0,
0,0,0,0,0,0,0,0,0,0,0,0,0,28,0,0,
10,10,8,9,8,8,10,0,0,0,0,0,0,0,8,10,
10,9,10,10,7,9,9,0,0,0,0,0,0,0,8,9,
10,7,8,9,10,10,8,0,0,0,0,0,0,0,9,9,
8,7,7,9,7,9,8,9,7,8,0,0,0,7,7,10,
8,9,8,8,9,10,10,10,8,10,0,10,10,10,10,9,
10,9,9,8,8,8,7,9,9,8,0,9,8,9,8,10,
10,7,10,9,9,9,8,7,7,8,0,10,10,10,9,9
</chunk>
   <chunk x="16" y="-16" width="16" height="16">
0,0,0,0,0,0,0,0,0,0,0,0,0,0,0,0,
0,0,0,0,0,0,0,0,0,0,0,0,0,0,0,0,
0,0,0,0,0,0,0,0,0,0,0,0,0,0,0,0,
0,0,0,0,0,0,0,0,0,0,0,0,0,0,0,0,
0,0,0,0,0,0,0,0,0,0,0,0,0,0,0,0,
0,0,0,0,0,0,0,0,0,0,0,0,0,0,0,0,
0,0,0,0,0,0,0,0,0,0,0,0,0,0,0,0,
0,0,0,0,0,0,0,0,0,0,0,0,0,0,0,0,
0,0,0,0,0,0,0,0,0,0,0,0,0,0,0,0,
10,9,9,7,7,7,10,9,7,9,9,9,7,0,0,0,
7,7,9,7,9,9,7,8,7,10,7,8,8,0,0,0,
9,7,8,8,7,8,10,9,8,9,10,10,7,0,0,0,
10,9,8,7,8,9,8,8,7,9,10,9,7,0,0,0,
9,9,10,8,9,7,10,7,7,8,10,9,7,0,0,0,
9,7,8,9,8,10,9,9,10,7,9,8,10,0,0,0,
10,9,9,9,8,8,10,8,8,10,8,8,9,0,0,0
</chunk>
   <chunk x="-16" y="0" width="16" height="16">
0,0,0,0,0,0,0,0,0,0,0,7,7,7,8,9,
0,0,0,0,0,0,0,0,0,0,0,8,7,9,7,10,
0,0,0,0,0,0,0,0,0,0,0,9,0,0,0,0,
0,0,0,0,0,0,0,0,0,0,0,9,0,9,8,7,
0,0,0,0,0,0,0,0,0,0,0,8,0,0,0,0,
0,0,0,0,0,0,0,0,0,0,0,7,7,10,10,8,
0,0,0,0,0,0,0,0,0,0,0,9,0,0,0,0,
0,0,0,0,0,0,0,0,0,0,0,7,0,9,10,7,
0,0,0,0,0,0,0,0,0,0,0,9,0,0,0,0,
0,0,0,0,0,0,0,0,0,0,0,10,10,8,9,10,
0,0,0,0,0,0,0,0,0,0,0,0,0,0,0,0,
0,0,0,0,0,0,0,0,0,0,0,0,0,0,0,0,
0,0,0,0,0,0,0,0,0,0,0,0,0,0,0,0,
0,0,0,0,0,0,0,0,0,0,0,0,0,0,0,0,
0,0,0,0,0,0,0,0,0,0,0,0,0,0,0,0,
0,0,0,0,0,0,0,0,0,0,0,0,0,0,0,0
</chunk>
   <chunk x="0" y="0" width="16" height="16">
8,8,10,8,10,10,7,7,10,9,0,0,0,0,0,0,
8,7,8,7,8,9,8,10,7,8,10,9,8,7,9,7,
0,0,0,0,0,0,0,0,0,0,0,0,0,0,0,0,
9,10,10,10,10,7,8,10,9,8,9,8,7,7,8,7,
0,0,0,0,0,0,0,0,0,0,0,0,0,0,0,0,
8,7,8,9,7,8,8,7,7,7,10,9,10,9,7,10,
0,0,0,0,0,0,0,0,0,0,0,0,0,0,0,0,
8,10,9,9,7,10,8,10,10,9,7,10,9,10,9,8,
0,0,0,0,0,0,0,0,0,0,0,0,0,0,0,0,
8,7,8,9,8,9,7,9,9,7,8,10,9,9,7,8,
0,0,0,0,0,0,0,0,0,0,0,0,0,0,0,0,
0,0,0,0,0,0,0,0,0,0,0,0,0,0,0,0,
0,0,0,0,0,0,0,0,0,0,0,0,0,0,0,0,
0,0,0,0,0,0,0,0,0,0,0,0,0,0,0,0,
0,0,0,0,0,0,0,0,0,0,0,0,0,0,0,0,
0,0,0,0,0,0,0,0,0,0,0,0,0,0,0,0
</chunk>
   <chunk x="16" y="0" width="16" height="16">
0,0,0,0,0,0,0,0,0,0,0,0,9,0,0,0,
8,9,7,9,10,10,10,9,7,10,7,0,10,0,0,0,
0,0,0,0,0,0,0,0,0,0,0,0,9,0,0,0,
9,8,7,9,10,10,9,8,7,9,9,10,8,0,0,0,
0,0,0,0,0,0,0,0,0,0,0,0,9,0,0,0,
8,7,8,7,8,10,8,8,9,10,7,7,10,0,0,0,
0,0,0,0,0,0,0,0,0,0,0,0,9,0,0,0,
7,8,7,8,8,8,9,10,9,8,7,9,10,10,7,9,
0,0,0,0,0,0,0,0,0,0,0,0,0,0,0,0,
10,10,10,9,10,10,7,8,10,10,10,7,9,8,9,10,
0,0,0,0,0,0,0,0,0,0,0,0,0,0,0,0,
0,0,0,0,0,0,0,0,0,0,0,0,0,0,0,0,
0,0,0,0,0,0,0,0,0,0,0,0,0,0,0,0,
0,0,0,0,0,0,0,0,0,0,0,0,0,0,0,0,
0,0,0,0,0,0,0,0,0,0,0,0,0,0,0,0,
0,0,0,0,0,0,0,0,0,0,0,0,0,0,0,0
</chunk>
   <chunk x="32" y="0" width="16" height="16">
0,0,0,0,0,0,0,0,0,0,0,0,0,0,0,0,
0,0,0,0,0,0,0,0,0,0,0,0,0,0,0,0,
0,0,0,0,0,0,0,0,0,0,0,0,0,0,0,0,
0,0,0,0,0,0,0,0,0,0,0,0,0,0,0,0,
0,0,0,0,0,0,0,0,0,0,0,0,0,0,0,0,
0,0,0,0,0,0,0,0,0,0,0,0,0,0,0,0,
0,0,0,0,0,0,0,0,0,0,0,0,0,0,0,0,
7,7,7,7,7,10,8,8,10,10,9,10,9,8,7,9,
0,0,0,0,0,0,0,0,0,0,0,0,0,0,0,0,
10,10,10,7,10,8,7,9,9,8,9,7,9,9,9,7,
0,0,0,0,0,0,0,0,0,0,0,0,0,0,0,0,
0,0,0,0,0,0,0,0,0,0,0,0,0,0,0,0,
0,0,0,0,0,0,0,0,0,0,0,0,0,0,0,0,
0,0,0,0,0,0,0,0,0,0,0,0,0,0,0,0,
0,0,0,0,0,0,0,0,0,0,0,0,0,0,0,0,
0,0,0,0,0,0,0,0,0,0,0,0,0,0,0,0
</chunk>
  </data>
 </layer>
</map>
