<?xml version="1.0" encoding="UTF-8"?>
<map version="1.10" tiledversion="1.12.2" orientation="orthogonal" renderorder="right-down" width="30" height="20" tilewidth="16" tileheight="16" infinite="1" nextlayerid="4" nextobjectid="1">
 <editorsettings>
  <export target="holybibi.lua" format="lua"/>
 </editorsettings>
 <tileset firstgid="1" name="HolyTiles" tilewidth="16" tileheight="16" tilecount="8" columns="4">
  <image source="../sprites/intro/Tilemap.png" width="64" height="32"/>
 </tileset>
 <layer id="1" name="Boden" width="30" height="20">
  <data encoding="csv">
   <chunk x="-32" y="-32" width="16" height="16">
0,0,0,0,0,0,0,0,0,0,0,0,0,0,0,0,
0,0,0,0,0,0,0,0,0,0,0,0,0,0,0,0,
0,0,0,0,0,0,0,0,0,0,0,0,0,0,0,0,
0,0,0,0,0,0,0,0,0,0,0,0,0,0,0,0,
0,0,0,0,0,0,0,0,0,0,0,0,0,0,0,0,
0,0,0,0,0,0,0,0,0,0,0,0,0,0,0,0,
0,0,0,0,0,0,0,0,0,0,0,0,0,0,0,0,
0,0,0,0,0,0,0,0,0,0,0,0,0,0,0,0,
0,0,0,0,0,0,0,0,0,0,0,0,0,0,0,0,
0,0,0,0,0,0,0,0,0,0,0,0,0,0,0,0,
8,8,8,8,8,8,8,8,8,8,8,8,8,8,8,8,
8,8,8,8,8,8,8,8,8,8,8,8,8,8,8,8,
8,8,8,8,8,8,8,8,8,8,8,8,8,8,8,8,
8,8,8,8,8,8,8,8,8,8,8,8,8,8,8,8,
8,8,8,8,8,8,8,8,8,8,8,8,8,8,8,8,
8,8,8,8,8,8,8,8,8,8,8,8,8,8,8,8
</chunk>
   <chunk x="-16" y="-32" width="16" height="16">
0,0,0,0,0,0,0,0,0,0,0,0,0,0,0,0,
0,0,0,0,0,0,0,0,0,0,0,0,0,0,0,0,
0,0,0,0,0,0,0,0,0,0,0,0,0,0,0,0,
0,0,0,0,0,0,0,0,0,0,0,0,0,0,0,0,
0,0,0,0,0,0,0,0,0,0,0,0,0,0,0,0,
0,0,0,0,0,0,0,0,0,0,0,0,0,0,0,0,
0,0,0,0,0,0,0,0,0,0,0,0,0,0,0,0,
0,0,0,0,0,0,0,0,0,0,0,0,0,0,0,0,
0,0,0,0,0,0,0,0,0,0,0,0,0,0,0,0,
0,0,0,0,0,0,0,0,0,0,0,0,0,0,0,0,
8,8,8,8,8,8,8,8,8,8,8,8,8,8,8,8,
8,8,8,8,8,8,8,8,8,8,8,8,8,8,8,8,
8,8,8,8,8,8,8,8,8,8,8,8,8,8,8,8,
8,8,8,8,8,8,8,8,8,8,8,8,8,8,8,8,
8,8,8,8,8,8,8,8,8,8,8,8,8,8,8,8,
8,8,8,8,8,8,8,8,8,8,8,8,8,8,8,8
</chunk>
   <chunk x="0" y="-32" width="16" height="16">
0,0,0,0,0,0,0,0,0,0,0,0,0,0,0,0,
0,0,0,0,0,0,0,0,0,0,0,0,0,0,0,0,
0,0,0,0,0,0,0,0,0,0,0,0,0,0,0,0,
0,0,0,0,0,0,0,0,0,0,0,0,0,0,0,0,
0,0,0,0,0,0,0,0,0,0,0,0,0,0,0,0,
0,0,0,0,0,0,0,0,0,0,0,0,0,0,0,0,
0,0,0,0,0,0,0,0,0,0,0,0,0,0,0,0,
0,0,0,0,0,0,0,0,0,0,0,0,0,0,0,0,
0,0,0,0,0,0,0,0,0,0,0,0,0,0,0,0,
0,0,0,0,0,0,0,0,0,0,0,0,0,0,0,0,
8,8,8,8,8,8,8,8,8,8,8,8,8,8,8,8,
8,8,8,8,8,8,8,8,8,8,8,8,8,8,8,8,
8,8,8,8,8,8,8,8,8,8,8,8,8,8,8,8,
8,8,8,8,8,8,8,8,8,8,8,8,8,8,8,8,
8,8,8,8,8,8,8,8,8,8,8,8,8,8,8,8,
8,8,8,8,8,8,8,8,8,8,8,8,8,8,8,8
</chunk>
   <chunk x="16" y="-32" width="16" height="16">
0,0,0,0,0,0,0,0,0,0,0,0,0,0,0,0,
0,0,0,0,0,0,0,0,0,0,0,0,0,0,0,0,
0,0,0,0,0,0,0,0,0,0,0,0,0,0,0,0,
0,0,0,0,0,0,0,0,0,0,0,0,0,0,0,0,
0,0,0,0,0,0,0,0,0,0,0,0,0,0,0,0,
0,0,0,0,0,0,0,0,0,0,0,0,0,0,0,0,
0,0,0,0,0,0,0,0,0,0,0,0,0,0,0,0,
0,0,0,0,0,0,0,0,0,0,0,0,0,0,0,0,
0,0,0,0,0,0,0,0,0,0,0,0,0,0,0,0,
0,0,0,0,0,0,0,0,0,0,0,0,0,0,0,0,
8,8,8,8,8,8,8,8,8,8,8,8,8,8,8,8,
8,8,8,8,8,8,8,8,8,8,8,8,8,8,8,8,
8,8,8,8,8,8,8,8,8,8,8,8,8,8,8,8,
8,8,8,8,8,8,8,8,8,8,8,8,8,8,8,8,
8,8,8,8,8,8,8,8,8,8,8,8,8,8,8,8,
8,8,8,8,8,8,8,8,8,8,8,8,8,8,8,8
</chunk>
   <chunk x="32" y="-32" width="16" height="16">
0,0,0,0,0,0,0,0,0,0,0,0,0,0,0,0,
0,0,0,0,0,0,0,0,0,0,0,0,0,0,0,0,
0,0,0,0,0,0,0,0,0,0,0,0,0,0,0,0,
0,0,0,0,0,0,0,0,0,0,0,0,0,0,0,0,
0,0,0,0,0,0,0,0,0,0,0,0,0,0,0,0,
0,0,0,0,0,0,0,0,0,0,0,0,0,0,0,0,
0,0,0,0,0,0,0,0,0,0,0,0,0,0,0,0,
0,0,0,0,0,0,0,0,0,0,0,0,0,0,0,0,
0,0,0,0,0,0,0,0,0,0,0,0,0,0,0,0,
0,0,0,0,0,0,0,0,0,0,0,0,0,0,0,0,
8,8,8,8,0,0,0,0,0,0,0,0,0,0,0,0,
8,8,8,8,0,0,0,0,0,0,0,0,0,0,0,0,
8,8,8,8,0,0,0,0,0,0,0,0,0,0,0,0,
8,8,8,8,0,0,0,0,0,0,0,0,0,0,0,0,
8,8,8,8,0,0,0,0,0,0,0,0,0,0,0,0,
8,8,8,8,0,0,0,0,0,0,0,0,0,0,0,0
</chunk>
   <chunk x="-32" y="-16" width="16" height="16">
8,8,8,8,8,8,8,8,8,8,8,8,8,8,8,8,
4,4,4,4,4,4,4,4,4,4,4,4,4,4,4,4,
2,2,2,2,2,2,2,2,2,2,2,2,2,2,2,2,
2,2,2,2,2,2,2,2,2,2,2,2,2,2,2,2,
2,2,2,2,2,2,2,2,2,2,2,2,2,2,2,2,
2,2,2,2,2,2,2,2,2,2,2,2,2,2,2,2,
2,2,2,2,2,2,2,2,2,2,2,2,2,2,2,2,
2,2,2,2,2,2,2,2,2,2,2,2,2,2,2,2,
2,2,2,2,2,2,2,2,2,2,2,2,2,2,2,2,
2,2,2,2,2,2,2,2,2,2,2,2,2,2,2,2,
2,2,2,2,2,2,2,2,2,2,2,2,2,2,2,2,
2,2,2,2,2,2,2,2,2,2,2,2,2,2,2,2,
2,2,2,2,2,2,2,2,2,2,2,2,2,2,2,2,
2,2,2,2,2,2,2,2,2,2,2,2,2,2,2,2,
2,2,2,2,2,2,2,2,2,2,2,2,2,2,2,2,
2,2,2,2,2,2,2,2,2,2,2,2,2,2,2,2
</chunk>
   <chunk x="-16" y="-16" width="16" height="16">
8,8,8,8,8,8,8,8,8,8,8,8,8,8,8,8,
4,4,4,4,4,4,4,4,4,4,4,4,4,4,4,4,
2,2,2,2,2,2,2,2,2,2,2,2,2,2,2,2,
2,2,2,2,2,2,2,2,2,2,2,2,2,2,2,2,
2,2,2,2,2,2,2,2,2,2,2,2,2,2,2,2,
2,2,2,2,2,2,2,2,2,2,2,2,2,2,2,2,
2,2,2,2,2,2,2,2,2,2,2,2,2,2,2,2,
2,2,2,2,2,2,2,2,2,2,2,2,2,2,2,2,
2,2,2,2,2,2,2,2,2,2,2,2,2,2,2,2,
2,2,2,2,2,2,2,2,2,2,2,2,2,2,2,2,
2,2,2,2,2,2,2,2,2,2,2,2,2,2,2,2,
2,2,2,2,2,2,2,2,2,2,2,2,2,2,2,2,
2,2,2,2,2,2,2,2,2,2,2,2,2,2,2,2,
2,2,2,2,2,2,2,2,2,2,2,2,2,2,2,2,
2,2,2,2,2,2,2,2,2,2,2,2,2,2,2,2,
2,2,2,2,2,2,2,2,2,2,2,2,2,2,2,2
</chunk>
   <chunk x="0" y="-16" width="16" height="16">
8,8,8,8,8,8,8,8,8,8,8,8,8,8,8,8,
4,4,4,4,4,4,4,4,4,4,4,4,4,4,4,4,
2,2,2,2,2,2,2,2,2,2,2,2,2,2,2,2,
2,2,2,2,2,2,2,2,2,2,2,2,2,2,2,2,
2,2,2,2,2,2,2,2,2,2,2,2,2,2,2,2,
2,2,2,2,2,1,2,2,2,2,2,2,2,2,2,2,
2,2,2,2,2,1,2,2,2,2,2,2,2,2,2,2,
2,2,2,2,2,1,2,2,2,2,2,2,2,2,2,2,
2,2,2,2,2,1,2,2,2,2,2,2,2,2,2,2,
2,2,2,2,2,1,2,2,2,2,2,2,2,2,2,2,
2,2,2,2,2,1,2,2,2,2,2,2,2,2,2,2,
2,2,2,2,2,1,2,2,2,2,2,2,2,2,2,2,
2,2,2,2,2,1,2,2,2,2,2,2,2,2,2,2,
2,2,2,2,2,1,2,2,2,2,2,2,2,2,2,2,
2,2,2,2,2,1,2,2,2,2,2,2,2,2,2,2,
2,2,2,2,2,1,2,2,2,2,2,2,2,2,2,2
</chunk>
   <chunk x="16" y="-16" width="16" height="16">
8,8,8,8,8,8,8,8,8,8,8,8,8,8,8,8,
4,4,4,4,4,4,4,4,4,4,4,4,4,4,4,4,
2,2,2,2,2,2,2,2,2,2,2,2,2,2,2,2,
2,2,2,2,2,2,2,2,2,2,2,2,2,2,2,2,
2,2,2,2,2,2,2,2,2,2,2,2,2,2,2,2,
2,2,2,2,2,2,2,2,2,2,2,2,2,2,2,2,
2,2,2,2,2,2,2,2,2,2,2,2,2,2,2,2,
2,2,2,2,2,2,2,2,2,2,2,2,2,2,2,2,
2,2,2,2,2,2,2,2,2,2,2,2,2,2,2,2,
2,2,2,2,2,2,2,2,2,2,2,2,2,2,2,2,
2,2,2,2,2,2,2,2,2,2,2,2,2,2,2,2,
2,2,2,2,2,2,2,2,2,2,2,2,2,2,2,2,
2,2,2,2,2,2,2,2,2,2,2,2,2,2,2,2,
2,2,2,2,2,2,2,2,2,2,2,2,2,2,2,2,
2,2,2,2,2,2,2,2,2,2,2,2,2,2,2,2,
2,2,2,2,2,2,2,2,2,2,2,2,2,2,2,2
</chunk>
   <chunk x="32" y="-16" width="16" height="16">
8,8,8,8,0,0,0,0,0,0,0,0,0,0,0,0,
4,4,4,4,0,0,0,0,0,0,0,0,0,0,0,0,
2,2,2,2,2,2,2,2,2,2,2,2,2,2,2,2,
2,2,2,2,2,2,2,2,2,2,2,2,2,2,2,2,
2,2,2,2,2,2,2,2,2,2,2,2,2,2,2,2,
2,2,2,2,2,2,2,2,2,2,2,2,2,2,2,2,
2,2,2,2,2,2,2,2,2,2,2,2,2,2,2,2,
2,2,2,2,2,2,2,2,2,2,2,2,2,2,2,2,
2,2,2,2,2,2,2,2,2,2,2,2,2,2,2,2,
2,2,2,2,2,2,2,2,2,2,2,2,2,2,2,2,
2,2,2,2,2,2,2,2,2,2,2,2,2,2,2,2,
2,2,2,2,2,2,2,2,2,2,2,2,2,2,2,2,
2,2,2,2,2,2,2,2,2,2,2,2,2,2,2,2,
2,2,2,2,2,2,2,2,2,2,2,2,2,2,2,2,
2,2,2,2,2,2,2,2,2,2,2,2,2,2,2,2,
2,2,2,2,2,2,2,2,2,2,2,2,2,2,2,2
</chunk>
   <chunk x="48" y="-16" width="16" height="16">
0,0,0,0,0,0,0,0,0,0,0,0,0,0,0,0,
0,0,0,0,0,0,0,0,0,0,0,0,0,0,0,0,
2,2,0,0,0,0,0,0,0,0,0,0,0,0,0,0,
2,2,0,0,0,0,0,0,0,0,0,0,0,0,0,0,
2,2,0,0,0,0,0,0,0,0,0,0,0,0,0,0,
2,2,0,0,0,0,0,0,0,0,0,0,0,0,0,0,
2,2,0,0,0,0,0,0,0,0,0,0,0,0,0,0,
2,2,0,0,0,0,0,0,0,0,0,0,0,0,0,0,
2,2,0,0,0,0,0,0,0,0,0,0,0,0,0,0,
2,2,0,0,0,0,0,0,0,0,0,0,0,0,0,0,
2,2,0,0,0,0,0,0,0,0,0,0,0,0,0,0,
2,2,0,0,0,0,0,0,0,0,0,0,0,0,0,0,
2,2,0,0,0,0,0,0,0,0,0,0,0,0,0,0,
2,2,0,0,0,0,0,0,0,0,0,0,0,0,0,0,
2,2,0,0,0,0,0,0,0,0,0,0,0,0,0,0,
2,2,0,0,0,0,0,0,0,0,0,0,0,0,0,0
</chunk>
   <chunk x="-32" y="0" width="16" height="16">
2,2,2,2,2,2,2,2,2,2,2,2,2,2,2,2,
2,2,2,2,2,2,2,2,2,2,2,2,2,2,2,2,
2,2,2,2,2,2,2,2,2,2,2,2,2,2,2,2,
2,2,2,2,2,2,2,2,2,2,2,2,2,2,2,2,
2,2,2,2,2,2,2,2,2,2,2,2,2,2,2,2,
2,2,2,2,2,2,2,2,2,2,2,2,2,2,2,2,
2,2,2,2,2,2,2,2,2,2,2,2,2,2,2,2,
2,2,2,2,2,2,2,2,2,2,2,2,2,2,2,2,
1,1,1,1,1,1,1,1,1,1,1,1,1,1,1,1,
2,2,2,2,2,2,2,2,2,2,2,2,2,2,2,2,
2,2,2,2,2,2,2,2,2,2,2,2,2,2,2,2,
2,2,2,2,2,2,2,2,2,2,2,2,2,2,2,2,
2,2,2,2,2,2,2,2,2,2,2,2,2,2,2,2,
2,2,2,2,2,2,2,2,2,2,2,2,2,2,2,2,
2,2,2,2,2,2,2,2,2,2,2,2,2,2,2,2,
2,2,2,2,2,2,2,2,2,2,2,2,2,2,2,2
</chunk>
   <chunk x="-16" y="0" width="16" height="16">
2,2,2,2,2,2,2,2,2,2,2,2,2,2,2,2,
2,2,2,2,2,2,2,2,2,2,2,2,2,2,2,2,
2,2,2,2,2,2,2,2,2,2,2,2,2,2,2,2,
2,2,2,2,2,2,2,2,2,2,2,2,2,2,2,2,
2,2,2,2,2,2,2,2,2,2,2,2,2,2,2,2,
2,2,2,2,2,2,2,2,2,2,2,2,2,2,2,2,
2,2,2,2,2,2,2,2,2,2,2,2,2,2,2,2,
2,2,2,2,2,2,2,2,2,2,2,2,2,2,2,2,
1,1,1,1,1,1,1,1,1,1,1,1,1,1,1,1,
2,2,2,2,2,2,2,2,2,2,2,2,2,2,2,2,
2,2,2,2,2,2,2,2,2,2,2,2,2,2,2,2,
2,2,2,2,2,2,2,2,2,2,2,2,2,2,2,2,
2,2,2,2,2,2,2,2,2,2,2,2,2,2,2,2,
2,2,2,2,2,2,2,2,2,2,2,2,2,2,2,2,
2,2,2,2,2,2,2,2,2,2,2,2,2,2,2,2,
2,2,2,2,2,2,2,2,2,2,2,2,2,2,2,2
</chunk>
   <chunk x="0" y="0" width="16" height="16">
2,2,2,2,2,1,2,2,2,2,2,2,2,2,2,2,
2,2,2,2,2,1,2,2,2,2,2,2,2,2,2,2,
2,2,2,2,2,1,2,2,2,2,2,2,2,2,2,2,
2,2,2,2,2,1,2,2,2,2,2,2,2,2,2,2,
2,2,2,2,2,1,2,2,2,2,2,2,2,2,2,2,
2,2,2,2,2,1,2,2,2,2,2,2,2,2,2,2,
2,2,2,2,2,1,2,2,2,2,2,2,2,2,2,2,
2,2,2,2,2,1,2,2,2,2,2,2,2,2,2,2,
1,1,1,1,1,1,1,1,1,1,1,1,1,1,1,1,
2,2,2,2,2,2,2,2,2,2,2,2,2,2,2,2,
2,2,2,2,2,2,2,2,2,2,2,2,2,2,2,2,
2,2,2,2,2,2,2,2,2,2,2,2,2,2,2,2,
2,2,2,2,2,2,2,2,2,2,2,2,2,2,2,2,
2,2,2,2,2,2,2,2,2,2,2,2,2,2,2,2,
2,2,2,2,2,2,2,2,2,2,2,2,2,2,2,2,
2,2,2,2,2,2,2,2,2,2,2,2,2,2,2,2
</chunk>
   <chunk x="16" y="0" width="16" height="16">
2,2,2,2,2,2,2,2,2,2,2,2,2,2,2,2,
2,2,2,2,2,2,2,2,2,2,2,2,2,2,2,2,
2,2,2,2,2,2,2,2,2,2,2,2,2,2,2,2,
2,2,2,2,2,2,2,2,2,2,2,2,2,2,2,2,
2,2,2,2,2,2,2,2,2,2,2,2,2,2,2,2,
2,2,2,2,2,2,2,2,2,2,2,2,2,2,2,2,
2,2,2,2,2,2,2,2,2,2,2,2,2,2,2,2,
2,2,2,2,2,2,2,2,1,1,1,1,2,2,2,2,
1,1,1,1,1,1,1,1,1,1,1,1,1,1,1,1,
2,2,2,2,2,2,2,2,2,2,2,2,2,2,2,2,
2,2,2,2,2,2,2,2,2,2,2,2,2,2,2,2,
2,2,2,2,2,2,2,2,2,2,2,2,2,2,2,2,
2,2,2,2,2,2,2,2,2,2,2,2,2,2,2,2,
2,2,2,2,2,2,2,2,2,2,2,2,2,2,2,2,
2,2,2,2,2,2,2,2,2,2,2,2,2,2,2,2,
2,2,2,2,2,2,2,2,2,2,2,2,2,2,2,2
</chunk>
   <chunk x="32" y="0" width="16" height="16">
2,2,2,2,2,2,2,2,2,2,2,2,2,2,2,2,
2,2,2,2,2,2,2,2,2,2,2,2,2,2,2,2,
2,2,2,2,2,2,2,2,2,2,2,2,2,2,2,2,
2,2,2,2,2,2,2,2,2,2,2,2,2,2,2,2,
2,2,2,2,2,2,2,2,2,2,2,2,2,2,2,2,
2,2,2,2,2,2,2,2,2,2,2,2,2,2,2,2,
2,2,2,2,2,2,2,2,2,2,2,2,2,2,2,2,
2,2,2,2,2,2,2,2,2,2,2,2,2,2,2,2,
1,1,1,1,1,1,1,1,1,1,1,1,1,1,1,1,
2,2,2,2,2,2,2,2,2,2,2,2,2,2,2,2,
2,2,2,2,2,2,2,2,2,2,2,2,2,2,2,2,
2,2,2,2,2,2,2,2,2,2,2,2,2,2,2,2,
2,2,2,2,2,2,2,2,2,2,2,2,2,2,2,2,
2,2,2,2,2,2,2,2,2,2,2,2,2,2,2,2,
2,2,2,2,2,2,2,2,2,2,2,2,2,2,2,2,
2,2,2,2,2,2,2,2,2,2,2,2,2,2,2,2
</chunk>
   <chunk x="48" y="0" width="16" height="16">
2,2,0,0,0,0,0,0,0,0,0,0,0,0,0,0,
2,2,0,0,0,0,0,0,0,0,0,0,0,0,0,0,
2,2,0,0,0,0,0,0,0,0,0,0,0,0,0,0,
2,2,0,0,0,0,0,0,0,0,0,0,0,0,0,0,
2,2,0,0,0,0,0,0,0,0,0,0,0,0,0,0,
2,2,0,0,0,0,0,0,0,0,0,0,0,0,0,0,
2,2,0,0,0,0,0,0,0,0,0,0,0,0,0,0,
2,2,0,0,0,0,0,0,0,0,0,0,0,0,0,0,
1,1,0,0,0,0,0,0,0,0,0,0,0,0,0,0,
2,2,0,0,0,0,0,0,0,0,0,0,0,0,0,0,
2,2,0,0,0,0,0,0,0,0,0,0,0,0,0,0,
2,2,0,0,0,0,0,0,0,0,0,0,0,0,0,0,
2,2,0,0,0,0,0,0,0,0,0,0,0,0,0,0,
2,2,0,0,0,0,0,0,0,0,0,0,0,0,0,0,
2,2,0,0,0,0,0,0,0,0,0,0,0,0,0,0,
2,2,0,0,0,0,0,0,0,0,0,0,0,0,0,0
</chunk>
   <chunk x="-32" y="16" width="16" height="16">
2,2,2,2,2,2,2,2,2,2,2,2,2,2,2,2,
2,2,2,2,2,2,2,2,2,2,2,2,2,2,2,2,
2,2,2,2,2,2,2,2,2,2,2,2,2,2,2,2,
2,2,2,2,2,2,2,2,2,2,2,2,2,2,2,2,
2,2,2,2,2,2,2,2,2,2,2,2,2,2,2,2,
2,2,2,2,2,2,2,2,2,2,2,2,2,2,2,2,
2,2,2,2,2,2,2,2,2,2,2,2,2,2,2,2,
2,2,2,2,2,2,2,2,2,2,2,2,2,2,2,2,
2,2,2,2,2,2,2,2,2,2,2,2,2,2,2,2,
2,2,2,2,2,2,2,2,2,2,2,2,2,2,2,2,
2,2,2,2,2,2,2,2,2,2,2,2,2,2,2,2,
2,2,2,2,2,2,2,2,2,2,2,2,2,2,2,2,
2,2,2,2,2,2,2,2,2,2,2,2,2,2,2,2,
2,2,2,2,2,2,2,2,2,2,2,2,2,2,2,2,
2,2,2,2,2,2,2,2,2,2,2,2,2,2,2,2,
2,2,2,2,2,2,2,2,2,2,2,2,2,2,2,2
</chunk>
   <chunk x="-16" y="16" width="16" height="16">
2,2,2,2,2,2,2,2,2,2,2,2,2,2,2,2,
2,2,2,2,2,2,2,2,2,2,2,2,2,2,2,2,
2,2,2,2,2,2,2,2,2,2,2,2,2,2,2,2,
2,2,2,2,2,2,2,2,2,2,2,2,2,2,2,2,
2,2,2,2,2,2,2,2,2,2,2,2,2,2,2,2,
2,2,2,2,2,2,2,2,2,2,2,2,2,2,2,2,
2,2,2,2,2,2,2,2,2,2,2,2,2,2,2,2,
2,2,2,2,2,2,2,2,2,2,2,2,2,2,2,2,
2,2,2,2,2,2,2,2,2,2,2,2,2,2,2,2,
2,2,2,2,2,2,2,2,2,2,2,2,2,2,2,2,
2,2,2,2,2,2,2,2,2,2,2,2,2,2,2,2,
2,2,2,2,2,2,2,2,2,2,2,2,2,2,2,2,
2,2,2,2,2,2,2,2,2,2,2,2,2,2,2,2,
2,2,2,2,2,2,2,2,2,2,2,2,2,2,2,2,
2,2,2,2,2,2,2,2,2,2,2,2,2,2,2,2,
2,2,2,2,2,2,2,2,2,2,2,2,2,2,2,2
</chunk>
   <chunk x="0" y="16" width="16" height="16">
2,2,2,2,2,2,2,2,2,2,2,2,2,2,2,2,
2,2,2,2,2,2,2,2,2,2,2,2,2,2,2,2,
2,2,2,2,2,2,2,2,2,2,2,2,2,2,2,2,
2,2,2,2,2,2,2,2,2,2,2,2,2,2,2,2,
2,2,2,2,2,2,2,2,2,2,2,2,2,2,2,2,
2,2,2,2,2,2,2,2,2,2,2,2,2,2,2,2,
2,2,2,2,2,2,2,2,2,2,2,2,2,2,2,2,
2,2,2,2,2,2,2,2,2,2,2,2,2,2,2,2,
2,2,2,2,2,2,2,2,2,2,2,2,2,2,2,2,
2,2,2,2,2,2,2,2,2,2,2,2,2,2,2,2,
2,2,2,2,2,2,2,2,2,2,2,2,2,2,2,2,
2,2,2,2,2,2,2,2,2,2,2,2,2,2,2,2,
2,2,2,2,2,2,2,2,2,2,2,2,2,2,2,2,
2,2,2,2,2,2,2,2,2,2,2,2,2,2,2,2,
2,2,2,2,2,2,2,2,2,2,2,2,2,2,2,2,
2,2,2,2,2,2,2,2,2,2,2,2,2,2,2,2
</chunk>
   <chunk x="16" y="16" width="16" height="16">
2,2,2,2,2,2,2,2,2,2,2,2,2,2,2,2,
2,2,2,2,2,2,2,2,2,2,2,2,2,2,2,2,
2,2,2,2,2,2,2,2,2,2,2,2,2,2,2,2,
2,2,2,2,2,2,2,2,2,2,2,2,2,2,2,2,
2,2,2,2,2,2,2,2,2,2,2,2,2,2,2,2,
2,2,2,2,2,2,2,2,2,2,2,2,2,2,2,2,
2,2,2,2,2,2,2,2,2,2,2,2,2,2,2,2,
2,2,2,2,2,2,2,2,2,2,2,2,2,2,2,2,
2,2,2,2,2,2,2,2,2,2,2,2,2,2,2,2,
2,2,2,2,2,2,2,2,2,2,2,2,2,2,2,2,
2,2,2,2,2,2,2,2,2,2,2,2,2,2,2,2,
2,2,2,2,2,2,2,2,2,2,2,2,2,2,2,2,
2,2,2,2,2,2,2,2,2,2,2,2,2,2,2,2,
2,2,2,2,2,2,2,2,2,2,2,2,2,2,2,2,
2,2,2,2,2,2,2,2,2,2,2,2,2,2,2,2,
2,2,2,2,2,2,2,2,2,2,2,2,2,2,2,2
</chunk>
   <chunk x="32" y="16" width="16" height="16">
2,2,2,2,2,2,2,2,2,2,2,2,2,2,2,2,
2,2,2,2,2,2,2,2,2,2,2,2,2,2,2,2,
2,2,2,2,2,2,2,2,2,2,2,2,2,2,2,2,
2,2,2,2,2,2,2,2,2,2,2,2,2,2,2,2,
2,2,2,2,2,2,2,2,2,2,2,2,2,2,2,2,
2,2,2,2,2,2,2,2,2,2,2,2,2,2,2,2,
2,2,2,2,2,2,2,2,2,2,2,2,2,2,2,2,
2,2,2,2,2,2,2,2,2,2,2,2,2,2,2,2,
2,2,2,2,2,2,2,2,2,2,2,2,2,2,2,2,
2,2,2,2,2,2,2,2,2,2,2,2,2,2,2,2,
2,2,2,2,2,2,2,2,2,2,2,2,2,2,2,2,
2,2,2,2,2,2,2,2,2,2,2,2,2,2,2,2,
2,2,2,2,2,2,2,2,2,2,2,2,2,2,2,2,
2,2,2,2,2,2,2,2,2,2,2,2,2,2,2,2,
2,2,2,2,2,2,2,2,2,2,2,2,2,2,2,2,
2,2,2,2,2,2,2,2,2,2,2,2,2,2,2,2
</chunk>
   <chunk x="48" y="16" width="16" height="16">
2,2,0,0,0,0,0,0,0,0,0,0,0,0,0,0,
2,2,0,0,0,0,0,0,0,0,0,0,0,0,0,0,
2,2,0,0,0,0,0,0,0,0,0,0,0,0,0,0,
2,2,0,0,0,0,0,0,0,0,0,0,0,0,0,0,
2,2,0,0,0,0,0,0,0,0,0,0,0,0,0,0,
2,2,0,0,0,0,0,0,0,0,0,0,0,0,0,0,
2,2,0,0,0,0,0,0,0,0,0,0,0,0,0,0,
2,2,0,0,0,0,0,0,0,0,0,0,0,0,0,0,
2,2,0,0,0,0,0,0,0,0,0,0,0,0,0,0,
2,2,0,0,0,0,0,0,0,0,0,0,0,0,0,0,
2,2,0,0,0,0,0,0,0,0,0,0,0,0,0,0,
2,2,0,0,0,0,0,0,0,0,0,0,0,0,0,0,
2,2,0,0,0,0,0,0,0,0,0,0,0,0,0,0,
2,2,0,0,0,0,0,0,0,0,0,0,0,0,0,0,
2,2,0,0,0,0,0,0,0,0,0,0,0,0,0,0,
2,2,0,0,0,0,0,0,0,0,0,0,0,0,0,0
</chunk>
   <chunk x="-32" y="32" width="16" height="16">
2,2,2,2,2,2,2,2,2,2,2,2,2,2,2,2,
2,2,2,2,2,2,2,2,2,2,2,2,2,2,2,2,
0,0,0,0,0,0,0,0,0,0,0,0,0,0,0,0,
0,0,0,0,0,0,0,0,0,0,0,0,0,0,0,0,
0,0,0,0,0,0,0,0,0,0,0,0,0,0,0,0,
0,0,0,0,0,0,0,0,0,0,0,0,0,0,0,0,
0,0,0,0,0,0,0,0,0,0,0,0,0,0,0,0,
0,0,0,0,0,0,0,0,0,0,0,0,0,0,0,0,
0,0,0,0,0,0,0,0,0,0,0,0,0,0,0,0,
0,0,0,0,0,0,0,0,0,0,0,0,0,0,0,0,
0,0,0,0,0,0,0,0,0,0,0,0,0,0,0,0,
0,0,0,0,0,0,0,0,0,0,0,0,0,0,0,0,
0,0,0,0,0,0,0,0,0,0,0,0,0,0,0,0,
0,0,0,0,0,0,0,0,0,0,0,0,0,0,0,0,
0,0,0,0,0,0,0,0,0,0,0,0,0,0,0,0,
0,0,0,0,0,0,0,0,0,0,0,0,0,0,0,0
</chunk>
   <chunk x="-16" y="32" width="16" height="16">
2,2,2,2,2,2,2,2,2,2,2,2,2,2,2,2,
2,2,2,2,2,2,2,2,2,2,2,2,2,2,2,2,
0,0,0,0,0,0,0,0,0,0,0,0,0,0,0,0,
0,0,0,0,0,0,0,0,0,0,0,0,0,0,0,0,
0,0,0,0,0,0,0,0,0,0,0,0,0,0,0,0,
0,0,0,0,0,0,0,0,0,0,0,0,0,0,0,0,
0,0,0,0,0,0,0,0,0,0,0,0,0,0,0,0,
0,0,0,0,0,0,0,0,0,0,0,0,0,0,0,0,
0,0,0,0,0,0,0,0,0,0,0,0,0,0,0,0,
0,0,0,0,0,0,0,0,0,0,0,0,0,0,0,0,
0,0,0,0,0,0,0,0,0,0,0,0,0,0,0,0,
0,0,0,0,0,0,0,0,0,0,0,0,0,0,0,0,
0,0,0,0,0,0,0,0,0,0,0,0,0,0,0,0,
0,0,0,0,0,0,0,0,0,0,0,0,0,0,0,0,
0,0,0,0,0,0,0,0,0,0,0,0,0,0,0,0,
0,0,0,0,0,0,0,0,0,0,0,0,0,0,0,0
</chunk>
   <chunk x="0" y="32" width="16" height="16">
2,2,2,2,2,2,2,2,2,2,2,2,2,2,2,2,
2,2,2,2,2,2,2,2,2,2,2,2,2,2,2,2,
0,0,0,0,0,0,0,0,0,0,0,0,0,0,0,0,
0,0,0,0,0,0,0,0,0,0,0,0,0,0,0,0,
0,0,0,0,0,0,0,0,0,0,0,0,0,0,0,0,
0,0,0,0,0,0,0,0,0,0,0,0,0,0,0,0,
0,0,0,0,0,0,0,0,0,0,0,0,0,0,0,0,
0,0,0,0,0,0,0,0,0,0,0,0,0,0,0,0,
0,0,0,0,0,0,0,0,0,0,0,0,0,0,0,0,
0,0,0,0,0,0,0,0,0,0,0,0,0,0,0,0,
0,0,0,0,0,0,0,0,0,0,0,0,0,0,0,0,
0,0,0,0,0,0,0,0,0,0,0,0,0,0,0,0,
0,0,0,0,0,0,0,0,0,0,0,0,0,0,0,0,
0,0,0,0,0,0,0,0,0,0,0,0,0,0,0,0,
0,0,0,0,0,0,0,0,0,0,0,0,0,0,0,0,
0,0,0,0,0,0,0,0,0,0,0,0,0,0,0,0
</chunk>
   <chunk x="16" y="32" width="16" height="16">
2,2,2,2,2,2,2,2,2,2,2,2,2,2,2,2,
2,2,2,2,2,2,2,2,2,2,2,2,2,2,2,2,
0,0,0,0,0,0,0,0,0,0,0,0,0,0,0,0,
0,0,0,0,0,0,0,0,0,0,0,0,0,0,0,0,
0,0,0,0,0,0,0,0,0,0,0,0,0,0,0,0,
0,0,0,0,0,0,0,0,0,0,0,0,0,0,0,0,
0,0,0,0,0,0,0,0,0,0,0,0,0,0,0,0,
0,0,0,0,0,0,0,0,0,0,0,0,0,0,0,0,
0,0,0,0,0,0,0,0,0,0,0,0,0,0,0,0,
0,0,0,0,0,0,0,0,0,0,0,0,0,0,0,0,
0,0,0,0,0,0,0,0,0,0,0,0,0,0,0,0,
0,0,0,0,0,0,0,0,0,0,0,0,0,0,0,0,
0,0,0,0,0,0,0,0,0,0,0,0,0,0,0,0,
0,0,0,0,0,0,0,0,0,0,0,0,0,0,0,0,
0,0,0,0,0,0,0,0,0,0,0,0,0,0,0,0,
0,0,0,0,0,0,0,0,0,0,0,0,0,0,0,0
</chunk>
   <chunk x="32" y="32" width="16" height="16">
2,2,2,2,2,2,2,2,2,2,2,2,2,2,2,2,
2,2,2,2,2,2,2,2,2,2,2,2,2,2,2,2,
0,0,0,0,0,0,0,0,0,0,0,0,0,0,0,0,
0,0,0,0,0,0,0,0,0,0,0,0,0,0,0,0,
0,0,0,0,0,0,0,0,0,0,0,0,0,0,0,0,
0,0,0,0,0,0,0,0,0,0,0,0,0,0,0,0,
0,0,0,0,0,0,0,0,0,0,0,0,0,0,0,0,
0,0,0,0,0,0,0,0,0,0,0,0,0,0,0,0,
0,0,0,0,0,0,0,0,0,0,0,0,0,0,0,0,
0,0,0,0,0,0,0,0,0,0,0,0,0,0,0,0,
0,0,0,0,0,0,0,0,0,0,0,0,0,0,0,0,
0,0,0,0,0,0,0,0,0,0,0,0,0,0,0,0,
0,0,0,0,0,0,0,0,0,0,0,0,0,0,0,0,
0,0,0,0,0,0,0,0,0,0,0,0,0,0,0,0,
0,0,0,0,0,0,0,0,0,0,0,0,0,0,0,0,
0,0,0,0,0,0,0,0,0,0,0,0,0,0,0,0
</chunk>
   <chunk x="48" y="32" width="16" height="16">
2,2,0,0,0,0,0,0,0,0,0,0,0,0,0,0,
2,2,0,0,0,0,0,0,0,0,0,0,0,0,0,0,
0,0,0,0,0,0,0,0,0,0,0,0,0,0,0,0,
0,0,0,0,0,0,0,0,0,0,0,0,0,0,0,0,
0,0,0,0,0,0,0,0,0,0,0,0,0,0,0,0,
0,0,0,0,0,0,0,0,0,0,0,0,0,0,0,0,
0,0,0,0,0,0,0,0,0,0,0,0,0,0,0,0,
0,0,0,0,0,0,0,0,0,0,0,0,0,0,0,0,
0,0,0,0,0,0,0,0,0,0,0,0,0,0,0,0,
0,0,0,0,0,0,0,0,0,0,0,0,0,0,0,0,
0,0,0,0,0,0,0,0,0,0,0,0,0,0,0,0,
0,0,0,0,0,0,0,0,0,0,0,0,0,0,0,0,
0,0,0,0,0,0,0,0,0,0,0,0,0,0,0,0,
0,0,0,0,0,0,0,0,0,0,0,0,0,0,0,0,
0,0,0,0,0,0,0,0,0,0,0,0,0,0,0,0,
0,0,0,0,0,0,0,0,0,0,0,0,0,0,0,0
</chunk>
  </data>
 </layer>
 <layer id="3" name="Unkraut" width="30" height="20">
  <data encoding="csv">
   <chunk x="32" y="-32" width="16" height="16">
0,0,0,0,0,0,0,0,0,0,0,0,0,0,0,0,
0,0,0,0,0,0,0,0,0,0,0,0,0,0,0,0,
0,0,0,0,0,0,0,0,0,0,0,0,0,0,0,0,
0,0,0,0,0,0,0,0,0,0,0,0,0,0,0,0,
0,0,0,0,0,0,0,0,0,0,0,0,0,0,0,0,
0,0,0,0,0,0,0,0,0,0,0,0,0,0,0,0,
0,0,0,0,0,0,0,0,0,0,0,0,0,0,0,0,
0,0,0,0,0,0,0,0,0,0,0,0,0,0,0,0,
0,0,0,0,0,0,0,0,0,0,0,0,0,0,0,0,
0,0,0,0,0,0,0,0,0,0,0,0,0,0,0,0,
0,0,0,0,8,8,8,8,8,8,8,8,8,8,8,8,
0,0,0,0,8,8,8,8,8,8,8,8,8,8,8,8,
0,0,0,0,8,8,8,8,8,8,8,8,8,8,8,8,
0,0,0,0,8,8,8,8,8,8,8,8,8,8,8,8,
0,0,0,0,8,8,8,8,8,8,8,8,8,8,8,8,
0,0,0,0,8,8,8,8,8,8,8,8,8,8,8,8
</chunk>
   <chunk x="48" y="-32" width="16" height="16">
0,0,0,0,0,0,0,0,0,0,0,0,0,0,0,0,
0,0,0,0,0,0,0,0,0,0,0,0,0,0,0,0,
0,0,0,0,0,0,0,0,0,0,0,0,0,0,0,0,
0,0,0,0,0,0,0,0,0,0,0,0,0,0,0,0,
0,0,0,0,0,0,0,0,0,0,0,0,0,0,0,0,
0,0,0,0,0,0,0,0,0,0,0,0,0,0,0,0,
0,0,0,0,0,0,0,0,0,0,0,0,0,0,0,0,
0,0,0,0,0,0,0,0,0,0,0,0,0,0,0,0,
0,0,0,0,0,0,0,0,0,0,0,0,0,0,0,0,
0,0,0,0,0,0,0,0,0,0,0,0,0,0,0,0,
8,8,0,0,0,0,0,0,0,0,0,0,0,0,0,0,
8,8,0,0,0,0,0,0,0,0,0,0,0,0,0,0,
8,8,0,0,0,0,0,0,0,0,0,0,0,0,0,0,
8,8,0,0,0,0,0,0,0,0,0,0,0,0,0,0,
8,8,0,0,0,0,0,0,0,0,0,0,0,0,0,0,
8,8,0,0,0,0,0,0,0,0,0,0,0,0,0,0
</chunk>
   <chunk x="-32" y="-16" width="16" height="16">
0,0,0,0,0,0,0,0,0,0,0,0,0,0,0,0,
0,0,0,0,0,0,0,0,0,0,0,0,0,0,0,0,
0,0,0,0,0,0,0,0,0,0,0,0,0,0,0,0,
0,0,0,0,0,0,0,0,0,0,0,0,0,0,0,0,
0,0,0,0,0,0,0,0,0,0,0,0,0,0,0,0,
1,1,1,1,1,1,1,1,1,1,1,1,1,1,1,1,
0,0,0,0,0,0,0,0,0,0,0,0,0,0,0,0,
5,3,6,6,5,6,5,5,7,7,5,3,6,7,5,5,
5,7,7,7,3,6,5,6,6,5,3,3,5,6,6,6,
5,7,7,6,7,6,6,7,7,3,3,3,6,3,7,5,
5,7,3,7,5,5,5,5,7,7,5,6,5,6,6,6,
3,7,7,5,7,6,5,5,3,5,5,3,6,7,6,5,
7,6,7,3,7,7,7,7,6,3,5,3,5,3,7,6,
7,3,7,5,5,3,6,3,6,7,6,6,7,6,3,6,
3,6,3,5,7,7,6,7,7,6,6,7,5,7,3,7,
3,5,5,3,7,5,7,3,6,5,6,3,3,6,3,3
</chunk>
   <chunk x="-16" y="-16" width="16" height="16">
0,0,0,0,0,0,0,0,0,0,0,0,0,0,0,0,
0,0,0,0,0,0,0,0,0,0,0,0,0,0,0,0,
0,0,0,0,0,0,0,0,0,0,0,0,0,0,0,0,
0,0,0,0,0,0,0,0,0,0,0,0,0,0,0,0,
0,0,0,0,0,0,0,0,0,0,0,0,0,0,0,0,
1,1,1,1,1,1,1,1,1,1,1,1,1,1,1,1,
0,0,0,0,0,0,0,0,0,0,0,0,0,0,0,0,
3,7,6,3,6,5,3,7,7,3,6,3,3,5,5,3,
7,6,7,5,3,6,7,6,3,5,3,3,3,5,3,6,
6,6,5,5,6,5,3,3,3,3,6,7,6,5,6,7,
3,5,7,6,7,6,6,5,3,5,6,3,7,3,5,5,
7,5,7,6,3,6,5,6,6,5,6,5,5,6,3,6,
3,3,5,7,5,7,6,7,7,3,6,3,6,3,3,5,
7,7,5,5,7,3,5,3,7,3,6,5,6,3,5,5,
7,5,6,7,6,3,7,6,6,6,6,7,5,6,3,3,
6,7,3,7,6,7,7,6,7,3,7,6,6,6,5,6
</chunk>
   <chunk x="0" y="-16" width="16" height="16">
0,0,0,0,0,0,0,0,0,0,0,0,0,0,0,0,
0,0,0,0,0,0,0,0,0,0,0,0,0,0,0,0,
0,0,0,0,0,0,0,0,0,0,0,0,0,0,0,0,
0,0,0,0,0,0,0,0,0,0,0,0,0,0,0,0,
0,0,0,0,0,0,0,0,0,0,0,0,0,0,0,0,
1,1,1,1,1,0,0,0,0,0,0,0,0,0,0,0,
0,0,0,0,0,0,0,0,0,0,0,0,0,0,0,0,
6,6,7,5,7,3,3,3,7,5,7,6,7,6,6,7,
5,6,3,7,3,3,3,7,6,3,3,7,3,7,7,6,
5,7,6,5,3,3,7,3,6,7,7,6,5,6,7,3,
3,3,7,6,5,3,3,3,5,6,6,6,7,7,5,5,
3,3,6,3,3,3,7,5,5,7,7,7,6,6,6,7,
5,5,7,7,7,3,3,6,3,7,5,6,6,6,5,7,
6,6,3,7,5,3,5,5,3,5,7,6,5,5,3,5,
7,6,6,5,3,3,7,7,5,7,5,3,5,6,6,7,
7,6,5,7,7,3,7,6,7,3,6,3,3,3,5,3
</chunk>
   <chunk x="16" y="-16" width="16" height="16">
0,0,0,0,0,0,0,0,0,0,0,0,0,0,0,0,
0,0,0,0,0,0,0,0,0,0,0,0,0,0,0,0,
0,0,0,0,0,0,0,0,0,0,0,0,0,0,0,0,
0,0,0,0,0,0,0,0,0,0,0,0,0,0,0,0,
0,0,0,0,0,0,0,0,0,0,0,0,0,0,0,0,
0,0,0,0,0,0,0,0,0,0,0,0,0,0,0,0,
0,0,0,0,0,0,0,0,0,0,0,0,0,0,0,0,
7,5,3,7,3,5,6,3,5,5,3,7,7,6,3,3,
7,3,5,3,6,7,5,6,6,7,5,5,6,6,3,6,
5,6,6,7,6,3,3,5,3,5,6,3,3,3,3,6,
5,6,5,6,3,7,5,3,6,5,7,7,5,5,7,7,
3,7,5,5,7,3,5,7,3,7,7,6,3,3,5,6,
6,3,3,6,5,6,5,3,5,6,3,5,3,6,5,5,
7,7,3,6,3,7,5,5,6,5,7,3,5,7,5,7,
3,3,7,5,7,3,7,7,7,7,6,3,5,6,6,6,
7,7,3,6,6,7,6,6,5,5,3,3,3,6,3,3
</chunk>
   <chunk x="32" y="-16" width="16" height="16">
0,0,0,0,8,8,8,8,8,8,8,8,8,8,8,8,
0,0,0,0,4,4,4,4,4,4,4,4,4,4,4,4,
0,0,0,0,0,0,0,0,0,0,0,0,0,0,0,0,
0,0,0,0,0,0,0,0,0,0,0,0,0,0,0,0,
0,0,0,0,0,0,0,0,0,0,0,0,0,0,0,0,
0,0,0,0,0,0,0,0,0,0,0,0,0,0,0,0,
0,0,0,0,0,0,0,0,0,0,0,0,0,0,0,0,
5,3,5,7,5,6,7,6,7,7,5,3,3,5,6,6,
3,3,7,7,3,7,7,7,3,3,6,7,6,5,3,6,
7,6,6,7,6,7,6,3,6,3,7,3,7,6,5,7,
3,3,6,6,6,3,6,6,6,5,7,5,7,7,5,6,
7,3,7,3,5,3,3,6,6,6,5,6,3,6,7,5,
5,3,3,7,6,5,6,3,5,6,6,5,5,7,5,5,
3,5,5,5,7,5,7,5,7,6,7,7,7,5,3,7,
5,3,6,3,7,6,6,5,5,6,3,7,7,5,6,3,
5,7,7,6,6,7,5,5,6,5,6,3,7,6,6,3
</chunk>
   <chunk x="48" y="-16" width="16" height="16">
8,8,0,0,0,0,0,0,0,0,0,0,0,0,0,0,
4,4,0,0,0,0,0,0,0,0,0,0,0,0,0,0,
0,0,0,0,0,0,0,0,0,0,0,0,0,0,0,0,
0,0,0,0,0,0,0,0,0,0,0,0,0,0,0,0,
0,0,0,0,0,0,0,0,0,0,0,0,0,0,0,0,
0,0,0,0,0,0,0,0,0,0,0,0,0,0,0,0,
0,0,0,0,0,0,0,0,0,0,0,0,0,0,0,0,
6,3,0,0,0,0,0,0,0,0,0,0,0,0,0,0,
3,6,0,0,0,0,0,0,0,0,0,0,0,0,0,0,
7,6,0,0,0,0,0,0,0,0,0,0,0,0,0,0,
5,7,0,0,0,0,0,0,0,0,0,0,0,0,0,0,
5,6,0,0,0,0,0,0,0,0,0,0,0,0,0,0,
5,3,0,0,0,0,0,0,0,0,0,0,0,0,0,0,
7,5,0,0,0,0,0,0,0,0,0,0,0,0,0,0,
5,7,0,0,0,0,0,0,0,0,0,0,0,0,0,0,
3,6,0,0,0,0,0,0,0,0,0,0,0,0,0,0
</chunk>
   <chunk x="-48" y="0" width="16" height="16">
0,0,0,0,0,0,0,0,0,0,0,0,0,0,0,0,
0,0,0,0,0,0,0,0,0,0,0,0,0,0,0,0,
0,0,0,0,0,0,0,0,0,0,0,0,0,0,0,0,
0,0,0,0,0,0,0,0,0,0,0,0,0,0,0,0,
0,0,0,0,0,0,0,0,0,0,0,0,0,0,0,0,
0,0,0,0,0,0,0,0,0,0,0,0,0,0,0,0,
0,0,0,0,0,0,0,0,0,0,0,0,0,0,0,0,
0,0,0,0,0,0,0,0,0,0,0,0,0,0,3,3,
0,0,0,0,0,0,0,0,0,0,0,3,3,3,3,3,
0,0,0,0,0,0,0,0,0,0,0,0,0,0,0,0,
0,0,0,0,0,0,0,0,0,0,0,0,0,0,0,0,
0,0,0,0,0,0,0,0,0,0,0,0,0,0,0,0,
0,0,0,0,0,0,0,0,0,0,0,0,0,0,0,0,
0,0,0,0,0,0,0,0,0,0,0,0,0,0,0,0,
0,0,0,0,0,0,0,0,0,0,0,0,0,0,0,0,
0,0,0,0,0,0,0,0,0,0,0,0,0,0,0,0
</chunk>
   <chunk x="-32" y="0" width="16" height="16">
7,5,6,7,7,7,3,5,7,7,3,7,5,7,3,6,
7,6,3,3,7,3,3,5,3,6,6,6,7,7,6,5,
5,5,3,6,5,7,6,3,6,5,7,6,6,3,7,6,
6,6,3,6,6,3,5,3,3,6,5,5,6,6,7,6,
3,3,3,3,5,5,3,5,3,5,6,5,5,6,7,5,
5,7,7,5,6,3,6,3,6,6,3,7,5,6,7,7,
6,7,7,3,7,6,6,7,5,5,3,3,7,3,5,5,
3,3,3,3,3,3,3,3,5,7,7,3,3,6,3,7,
3,3,3,3,3,3,3,3,3,3,3,3,3,3,3,3,
5,6,7,6,3,5,5,7,5,7,7,3,3,3,7,6,
5,6,3,6,5,7,5,3,7,7,5,6,3,5,5,7,
6,3,6,7,7,3,6,3,6,3,5,5,5,5,6,3,
3,6,3,6,5,6,7,7,6,3,5,5,3,3,5,6,
7,7,6,6,7,5,5,7,7,7,7,3,3,7,3,7,
5,3,5,7,7,3,5,7,6,7,3,7,5,6,5,5,
6,3,6,6,5,7,6,5,7,6,5,5,7,7,7,7
</chunk>
   <chunk x="-16" y="0" width="16" height="16">
7,7,6,6,6,7,7,6,7,6,3,5,3,3,5,3,
5,6,6,3,7,5,6,5,5,6,3,5,3,5,3,7,
7,6,7,3,6,3,7,5,6,7,6,3,3,7,3,3,
3,3,3,6,5,5,6,5,7,7,7,7,6,6,7,5,
5,6,6,6,6,5,6,7,6,3,6,6,5,5,6,7,
5,3,5,3,6,6,7,7,7,6,6,6,5,5,6,7,
3,6,5,6,5,7,5,5,5,6,7,5,7,7,6,7,
7,3,3,3,5,6,3,7,3,5,5,5,6,5,3,6,
3,3,3,3,3,3,3,3,3,3,3,3,3,3,3,3,
7,7,6,3,3,3,7,7,5,5,5,3,3,6,7,3,
6,5,3,5,7,5,6,5,6,3,6,5,6,7,3,6,
7,7,7,6,3,5,5,6,3,5,3,3,5,5,6,3,
5,5,6,6,3,7,3,5,7,3,3,6,3,7,3,5,
3,5,5,5,5,5,7,6,6,3,3,7,5,7,7,7,
5,3,7,5,7,3,6,6,7,6,6,7,5,5,3,3,
7,3,6,7,5,3,7,5,7,5,7,3,5,5,7,7
</chunk>
   <chunk x="0" y="0" width="16" height="16">
3,3,5,7,5,3,7,5,3,6,7,3,7,7,3,7,
6,7,7,6,7,3,7,6,7,6,3,3,3,6,7,7,
6,6,7,5,7,3,3,7,6,3,6,5,5,7,5,5,
7,3,7,7,7,3,7,6,5,6,7,5,7,5,3,7,
6,3,6,5,5,3,7,3,6,6,5,7,5,3,3,7,
3,6,3,7,3,3,3,6,6,5,3,7,7,3,7,7,
6,5,5,6,5,3,6,7,5,3,5,3,6,6,7,3,
6,6,5,5,7,3,6,7,7,6,3,7,6,7,3,3,
3,3,3,3,3,3,3,3,3,3,3,3,3,3,3,3,
6,3,6,7,5,5,3,7,5,3,3,3,7,5,6,3,
3,7,3,6,7,7,3,6,6,7,3,5,7,6,5,7,
5,5,5,5,3,3,6,7,6,7,7,3,7,3,7,5,
3,7,5,3,6,3,6,3,3,3,3,7,7,6,7,7,
3,5,5,3,6,5,7,3,6,5,3,5,5,6,6,6,
7,7,5,3,6,5,6,7,3,7,3,6,5,7,5,5,
6,3,7,7,6,6,6,7,7,7,7,7,5,6,3,3
</chunk>
   <chunk x="16" y="0" width="16" height="16">
6,6,3,3,7,5,6,6,6,6,7,6,5,6,6,7,
7,3,6,7,3,7,7,7,5,6,6,6,5,7,3,3,
7,5,6,3,6,3,3,3,6,3,7,6,7,6,7,5,
6,7,6,6,6,7,3,3,3,7,3,5,6,3,3,5,
6,6,6,6,5,6,7,5,5,7,7,7,6,6,5,7,
6,3,7,5,7,3,3,7,7,3,7,3,3,3,7,7,
7,6,3,5,3,6,7,6,7,3,7,3,7,7,6,5,
3,6,6,3,3,6,5,6,0,0,0,0,5,3,3,5,
3,3,3,3,3,3,3,3,3,3,3,3,3,3,3,3,
5,6,6,6,5,6,7,6,6,3,3,5,5,5,7,3,
6,3,6,7,7,7,5,6,6,6,3,5,7,3,3,7,
5,7,7,6,6,5,5,6,5,6,6,3,7,6,7,3,
6,3,7,3,5,6,6,5,5,5,7,7,5,3,3,5,
7,7,7,7,7,6,3,3,5,7,7,6,6,5,7,7,
5,6,7,3,6,6,3,3,3,5,7,3,6,6,7,7,
6,5,5,3,5,3,7,6,6,5,6,6,7,7,7,5
</chunk>
   <chunk x="32" y="0" width="16" height="16">
3,3,3,7,3,5,7,5,6,5,3,7,5,6,3,5,
5,7,6,6,6,5,5,3,5,6,3,7,7,6,5,3,
6,5,7,5,6,3,3,5,5,6,7,6,7,7,5,7,
3,3,7,7,5,7,5,5,3,3,6,5,3,6,6,5,
5,6,3,5,3,5,7,5,6,7,3,7,5,6,5,6,
5,5,3,3,3,6,3,5,6,5,7,6,7,7,5,3,
7,6,6,7,3,3,6,7,5,7,7,5,6,3,7,3,
5,7,3,6,7,5,7,6,7,6,6,5,7,3,3,5,
3,3,3,3,3,3,3,3,3,3,3,3,3,3,3,3,
7,7,3,3,7,3,7,6,7,6,7,6,7,5,7,6,
7,7,5,7,7,7,5,6,5,5,3,3,5,5,6,3,
3,7,5,5,5,3,7,6,7,5,6,5,6,5,6,5,
5,5,5,6,7,3,3,6,7,5,3,6,6,3,3,6,
7,7,6,5,6,6,7,3,7,5,6,3,6,5,5,6,
7,7,3,3,5,5,3,7,6,3,6,6,6,3,7,6,
7,5,6,3,5,3,6,3,7,7,5,3,5,7,3,6
</chunk>
   <chunk x="48" y="0" width="16" height="16">
6,6,0,0,0,0,0,0,0,0,0,0,0,0,0,0,
3,6,0,0,0,0,0,0,0,0,0,0,0,0,0,0,
3,3,0,0,0,0,0,0,0,0,0,0,0,0,0,0,
3,7,0,0,0,0,0,0,0,0,0,0,0,0,0,0,
7,3,0,0,0,0,0,0,0,0,0,0,0,0,0,0,
7,5,0,0,0,0,0,0,0,0,0,0,0,0,0,0,
3,5,0,0,0,0,0,0,0,0,0,0,0,0,0,0,
7,5,0,0,0,0,0,0,0,0,0,0,0,0,0,0,
3,3,3,0,0,0,0,0,0,0,0,0,0,0,0,0,
7,5,0,0,0,0,0,0,0,0,0,0,0,0,0,0,
6,3,0,0,0,0,0,0,0,0,0,0,0,0,0,0,
5,3,0,0,0,0,0,0,0,0,0,0,0,0,0,0,
6,7,0,0,0,0,0,0,0,0,0,0,0,0,0,0,
5,6,0,0,0,0,0,0,0,0,0,0,0,0,0,0,
7,3,0,0,0,0,0,0,0,0,0,0,0,0,0,0,
5,7,0,0,0,0,0,0,0,0,0,0,0,0,0,0
</chunk>
   <chunk x="-32" y="16" width="16" height="16">
5,6,6,7,5,3,6,5,6,6,6,6,7,5,3,6,
7,5,7,3,6,7,5,5,5,3,6,3,3,5,3,3,
6,5,5,5,3,7,6,5,6,7,5,5,3,6,5,3,
5,7,6,5,3,7,7,7,5,6,7,6,7,5,6,7,
3,5,6,3,3,7,7,6,7,7,7,3,5,5,7,6,
7,3,7,6,7,6,3,3,5,5,5,7,3,6,3,3,
5,5,5,7,3,6,3,5,6,7,3,6,7,7,7,6,
5,6,3,7,5,5,7,5,7,3,6,5,5,7,5,7,
3,7,6,3,6,7,7,6,6,6,5,6,5,5,6,5,
7,5,6,7,6,5,3,3,3,7,3,5,3,7,7,6,
6,5,5,6,5,7,3,7,3,3,7,3,6,7,7,7,
3,3,5,5,6,5,6,3,5,3,5,6,5,7,3,7,
3,7,6,5,6,5,3,6,7,5,5,5,3,6,3,5,
7,6,6,3,5,7,7,3,7,6,3,3,7,7,6,6,
6,6,7,7,5,7,7,7,5,6,3,3,3,3,6,5,
7,3,3,7,5,7,6,6,6,7,3,7,3,5,6,6
</chunk>
   <chunk x="-16" y="16" width="16" height="16">
3,7,5,7,6,5,7,6,3,7,3,6,5,6,5,7,
5,6,6,5,6,6,3,3,7,3,3,7,7,7,3,5,
7,6,7,7,6,3,6,6,7,6,7,3,5,5,6,7,
5,3,3,5,7,5,3,3,5,5,5,7,3,5,5,3,
6,6,6,7,6,6,5,3,3,3,6,5,6,3,5,5,
7,5,3,3,3,6,6,3,7,3,5,6,7,3,5,5,
6,5,3,7,3,3,6,6,7,6,7,6,7,7,6,5,
3,6,6,5,3,7,3,5,7,7,3,3,7,7,5,5,
5,5,5,6,3,7,3,7,6,6,3,6,3,3,6,7,
7,7,3,7,3,7,5,6,3,6,7,7,3,6,7,6,
3,7,3,7,5,6,7,3,6,7,5,6,5,3,5,5,
7,5,3,7,5,6,5,3,5,3,7,7,7,5,6,3,
7,7,7,5,5,7,7,5,5,3,6,7,6,3,3,6,
3,6,5,3,3,3,3,5,5,5,3,5,3,7,5,6,
3,5,6,3,3,6,5,6,5,7,5,6,5,5,7,7,
6,7,3,5,5,3,3,5,7,7,7,5,7,6,7,3
</chunk>
   <chunk x="0" y="16" width="16" height="16">
5,6,6,7,6,5,6,3,3,7,6,6,7,3,3,5,
3,6,5,5,3,7,6,7,7,6,7,5,5,6,6,3,
5,6,7,3,7,7,6,7,6,7,5,6,5,7,6,7,
7,3,6,3,5,7,3,3,7,6,7,5,3,7,5,3,
7,5,5,3,7,7,7,3,6,7,7,3,5,5,5,5,
6,5,6,5,3,5,5,5,6,3,7,7,6,3,3,3,
6,6,3,6,5,3,6,7,6,5,3,6,6,6,5,6,
5,5,6,5,3,7,6,3,7,6,7,7,5,7,3,6,
7,6,7,3,5,3,6,6,6,3,7,3,6,5,3,3,
5,7,6,7,3,7,5,6,3,5,7,6,5,3,5,3,
6,6,3,5,6,6,3,6,6,7,3,3,3,5,7,3,
6,7,5,5,3,5,5,7,6,6,5,5,5,3,5,3,
7,6,5,3,3,3,3,6,3,5,3,5,3,7,7,7,
5,7,5,5,7,3,3,6,5,5,6,6,3,3,3,6,
3,5,5,3,5,3,6,5,7,5,5,5,3,6,3,7,
3,7,6,6,3,7,6,5,7,7,6,5,3,3,5,5
</chunk>
   <chunk x="16" y="16" width="16" height="16">
7,6,5,5,7,3,6,5,3,3,7,7,3,3,5,5,
5,3,5,7,6,6,6,3,5,6,6,3,7,5,5,5,
3,3,6,6,7,3,3,3,6,3,3,3,3,6,6,5,
3,5,6,3,6,3,6,7,5,5,7,5,6,6,6,7,
5,6,5,3,7,3,3,5,3,6,3,5,6,3,3,7,
6,7,7,3,5,7,3,7,7,7,6,3,3,7,7,7,
6,6,7,6,5,7,6,7,3,6,7,3,5,7,5,5,
5,7,3,5,6,6,6,3,6,3,3,5,3,7,5,5,
7,5,3,5,6,5,6,5,7,6,5,5,3,5,5,3,
3,3,5,5,3,5,6,5,5,6,5,3,6,5,5,7,
5,7,7,5,6,6,5,7,7,6,7,7,7,5,6,6,
3,7,6,5,6,6,5,7,3,7,7,3,5,3,5,5,
7,3,5,7,6,5,3,6,5,7,5,3,7,5,6,6,
5,7,5,6,6,7,3,6,6,3,6,3,3,3,5,7,
7,3,7,7,6,5,6,3,5,3,6,3,3,3,3,3,
7,7,6,5,5,5,3,3,5,7,7,5,6,7,3,5
</chunk>
   <chunk x="32" y="16" width="16" height="16">
5,3,5,5,5,5,5,5,7,5,6,7,6,5,6,7,
5,5,7,6,7,6,7,5,7,7,5,5,3,6,5,6,
3,5,6,6,7,7,6,6,7,7,7,6,7,5,7,5,
5,5,5,3,7,6,3,5,7,6,6,6,3,7,7,3,
5,5,3,6,5,5,3,3,6,7,5,7,7,6,5,3,
5,3,7,3,3,3,5,5,7,3,7,6,5,6,5,7,
3,7,6,3,5,6,5,6,6,5,6,3,3,3,5,7,
5,3,5,6,7,3,5,6,3,6,3,6,6,5,6,3,
7,5,5,6,6,7,6,5,5,5,7,5,6,3,6,6,
6,3,6,7,5,6,7,7,5,3,7,7,7,3,5,5,
6,5,6,6,3,5,3,3,3,3,5,7,3,3,3,3,
3,6,7,3,6,3,5,3,3,3,5,6,3,3,3,5,
7,7,6,6,7,6,6,6,7,5,7,5,6,5,7,6,
7,3,3,6,3,6,5,3,7,3,7,3,5,6,3,6,
5,7,3,5,6,3,3,5,5,5,3,5,7,7,3,6,
6,5,5,3,3,5,7,3,7,3,6,3,7,6,3,6
</chunk>
   <chunk x="48" y="16" width="16" height="16">
6,6,0,0,0,0,0,0,0,0,0,0,0,0,0,0,
3,7,0,0,0,0,0,0,0,0,0,0,0,0,0,0,
7,5,0,0,0,0,0,0,0,0,0,0,0,0,0,0,
6,3,0,0,0,0,0,0,0,0,0,0,0,0,0,0,
7,7,0,0,0,0,0,0,0,0,0,0,0,0,0,0,
5,6,0,0,0,0,0,0,0,0,0,0,0,0,0,0,
6,6,0,0,0,0,0,0,0,0,0,0,0,0,0,0,
3,6,0,0,0,0,0,0,0,0,0,0,0,0,0,0,
5,6,0,0,0,0,0,0,0,0,0,0,0,0,0,0,
5,3,0,0,0,0,0,0,0,0,0,0,0,0,0,0,
5,7,0,0,0,0,0,0,0,0,0,0,0,0,0,0,
3,3,0,0,0,0,0,0,0,0,0,0,0,0,0,0,
3,3,0,0,0,0,0,0,0,0,0,0,0,0,0,0,
3,6,0,0,0,0,0,0,0,0,0,0,0,0,0,0,
5,6,0,0,0,0,0,0,0,0,0,0,0,0,0,0,
7,7,0,0,0,0,0,0,0,0,0,0,0,0,0,0
</chunk>
   <chunk x="-32" y="32" width="16" height="16">
6,7,6,5,6,7,5,7,3,6,5,6,7,6,3,3,
3,7,5,3,3,7,7,3,5,5,6,3,7,5,5,5,
0,0,0,0,0,0,0,0,0,0,0,0,0,0,0,0,
0,0,0,0,0,0,0,0,0,0,0,0,0,0,0,0,
0,0,0,0,0,0,0,0,0,0,0,0,0,0,0,0,
0,0,0,0,0,0,0,0,0,0,0,0,0,0,0,0,
0,0,0,0,0,0,0,0,0,0,0,0,0,0,0,0,
0,0,0,0,0,0,0,0,0,0,0,0,0,0,0,0,
0,0,0,0,0,0,0,0,0,0,0,0,0,0,0,0,
0,0,0,0,0,0,0,0,0,0,0,0,0,0,0,0,
0,0,0,0,0,0,0,0,0,0,0,0,0,0,0,0,
0,0,0,0,0,0,0,0,0,0,0,0,0,0,0,0,
0,0,0,0,0,0,0,0,0,0,0,0,0,0,0,0,
0,0,0,0,0,0,0,0,0,0,0,0,0,0,0,0,
0,0,0,0,0,0,0,0,0,0,0,0,0,0,0,0,
0,0,0,0,0,0,0,0,0,0,0,0,0,0,0,0
</chunk>
   <chunk x="-16" y="32" width="16" height="16">
6,6,5,6,3,5,6,5,3,3,5,6,5,7,5,7,
7,6,5,3,7,7,6,3,5,7,6,5,7,7,5,6,
0,0,0,0,0,0,0,0,0,0,0,0,0,0,0,0,
0,0,0,0,0,0,0,0,0,0,0,0,0,0,0,0,
0,0,0,0,0,0,0,0,0,0,0,0,0,0,0,0,
0,0,0,0,0,0,0,0,0,0,0,0,0,0,0,0,
0,0,0,0,0,0,0,0,0,0,0,0,0,0,0,0,
0,0,0,0,0,0,0,0,0,0,0,0,0,0,0,0,
0,0,0,0,0,0,0,0,0,0,0,0,0,0,0,0,
0,0,0,0,0,0,0,0,0,0,0,0,0,0,0,0,
0,0,0,0,0,0,0,0,0,0,0,0,0,0,0,0,
0,0,0,0,0,0,0,0,0,0,0,0,0,0,0,0,
0,0,0,0,0,0,0,0,0,0,0,0,0,0,0,0,
0,0,0,0,0,0,0,0,0,0,0,0,0,0,0,0,
0,0,0,0,0,0,0,0,0,0,0,0,0,0,0,0,
0,0,0,0,0,0,0,0,0,0,0,0,0,0,0,0
</chunk>
   <chunk x="0" y="32" width="16" height="16">
5,7,6,7,6,7,3,7,7,3,7,6,5,5,3,3,
6,6,6,7,3,6,6,7,6,7,5,7,3,3,6,3,
0,0,0,0,0,0,0,0,0,0,0,0,0,0,0,0,
0,0,0,0,0,0,0,0,0,0,0,0,0,0,0,0,
0,0,0,0,0,0,0,0,0,0,0,0,0,0,0,0,
0,0,0,0,0,0,0,0,0,0,0,0,0,0,0,0,
0,0,0,0,0,0,0,0,0,0,0,0,0,0,0,0,
0,0,0,0,0,0,0,0,0,0,0,0,0,0,0,0,
0,0,0,0,0,0,0,0,0,0,0,0,0,0,0,0,
0,0,0,0,0,0,0,0,0,0,0,0,0,0,0,0,
0,0,0,0,0,0,0,0,0,0,0,0,0,0,0,0,
0,0,0,0,0,0,0,0,0,0,0,0,0,0,0,0,
0,0,0,0,0,0,0,0,0,0,0,0,0,0,0,0,
0,0,0,0,0,0,0,0,0,0,0,0,0,0,0,0,
0,0,0,0,0,0,0,0,0,0,0,0,0,0,0,0,
0,0,0,0,0,0,0,0,0,0,0,0,0,0,0,0
</chunk>
   <chunk x="16" y="32" width="16" height="16">
7,6,5,5,7,5,5,5,5,7,6,5,6,6,3,3,
5,5,6,6,6,7,5,7,3,3,7,6,3,5,6,7,
0,0,0,0,0,0,0,0,0,0,0,0,0,0,0,0,
0,0,0,0,0,0,0,0,0,0,0,0,0,0,0,0,
0,0,0,0,0,0,0,0,0,0,0,0,0,0,0,0,
0,0,0,0,0,0,0,0,0,0,0,0,0,0,0,0,
0,0,0,0,0,0,0,0,0,0,0,0,0,0,0,0,
0,0,0,0,0,0,0,0,0,0,0,0,0,0,0,0,
0,0,0,0,0,0,0,0,0,0,0,0,0,0,0,0,
0,0,0,0,0,0,0,0,0,0,0,0,0,0,0,0,
0,0,0,0,0,0,0,0,0,0,0,0,0,0,0,0,
0,0,0,0,0,0,0,0,0,0,0,0,0,0,0,0,
0,0,0,0,0,0,0,0,0,0,0,0,0,0,0,0,
0,0,0,0,0,0,0,0,0,0,0,0,0,0,0,0,
0,0,0,0,0,0,0,0,0,0,0,0,0,0,0,0,
0,0,0,0,0,0,0,0,0,0,0,0,0,0,0,0
</chunk>
   <chunk x="32" y="32" width="16" height="16">
7,5,5,5,5,7,6,6,6,3,7,3,5,3,7,7,
5,7,3,5,7,3,5,5,6,7,6,5,7,5,5,3,
0,0,0,0,0,0,0,0,0,0,0,0,0,0,0,0,
0,0,0,0,0,0,0,0,0,0,0,0,0,0,0,0,
0,0,0,0,0,0,0,0,0,0,0,0,0,0,0,0,
0,0,0,0,0,0,0,0,0,0,0,0,0,0,0,0,
0,0,0,0,0,0,0,0,0,0,0,0,0,0,0,0,
0,0,0,0,0,0,0,0,0,0,0,0,0,0,0,0,
0,0,0,0,0,0,0,0,0,0,0,0,0,0,0,0,
0,0,0,0,0,0,0,0,0,0,0,0,0,0,0,0,
0,0,0,0,0,0,0,0,0,0,0,0,0,0,0,0,
0,0,0,0,0,0,0,0,0,0,0,0,0,0,0,0,
0,0,0,0,0,0,0,0,0,0,0,0,0,0,0,0,
0,0,0,0,0,0,0,0,0,0,0,0,0,0,0,0,
0,0,0,0,0,0,0,0,0,0,0,0,0,0,0,0,
0,0,0,0,0,0,0,0,0,0,0,0,0,0,0,0
</chunk>
   <chunk x="48" y="32" width="16" height="16">
3,7,0,0,0,0,0,0,0,0,0,0,0,0,0,0,
6,7,0,0,0,0,0,0,0,0,0,0,0,0,0,0,
0,0,0,0,0,0,0,0,0,0,0,0,0,0,0,0,
0,0,0,0,0,0,0,0,0,0,0,0,0,0,0,0,
0,0,0,0,0,0,0,0,0,0,0,0,0,0,0,0,
0,0,0,0,0,0,0,0,0,0,0,0,0,0,0,0,
0,0,0,0,0,0,0,0,0,0,0,0,0,0,0,0,
0,0,0,0,0,0,0,0,0,0,0,0,0,0,0,0,
0,0,0,0,0,0,0,0,0,0,0,0,0,0,0,0,
0,0,0,0,0,0,0,0,0,0,0,0,0,0,0,0,
0,0,0,0,0,0,0,0,0,0,0,0,0,0,0,0,
0,0,0,0,0,0,0,0,0,0,0,0,0,0,0,0,
0,0,0,0,0,0,0,0,0,0,0,0,0,0,0,0,
0,0,0,0,0,0,0,0,0,0,0,0,0,0,0,0,
0,0,0,0,0,0,0,0,0,0,0,0,0,0,0,0,
0,0,0,0,0,0,0,0,0,0,0,0,0,0,0,0
</chunk>
  </data>
 </layer>
</map>
